X:131
T:(untitled)
T:John Malchair's Third Collection of Tunes
%%VWML:Malchair-3619-p131
F:https://www.vwml.org/record/Malchair/3619/p131
F:www.vwml.org/topics/historic-dance-and-tune-books/Malchair
Z:Eric Conrad Feb 2020
%Q:3/4=110 % This is so familiar! Name that English Country Dancing tune!
M:6/4
L:1/4
V:S     % top staff, stems up
V:A     % top staff, stems down
V:B     % bottom staff
%%score {(S A) B}
K:D
V:S
% measure 4 is short as in MS.
A | d2e f2g | a3 b3 | agf e2f | g3 [df]2 x | edc d2e | [EA]3 [EA]2 :|
V:A
x | [FA]2c d2e | f3 g3 | fed c2d | B2c A2 x | c^GA FG2 | C3 C2 :|
V:B octave=-2 clef=F
z | [Dd-]3 d3 | x6 | x6 | x6 | a3 a3 | a3 [Aa]2 :|
V:S
|: f | edc d2e | e3 e2f | edc d2e | a3 a2f |
 edc B2c |  d2e f2b | abg f2e | d3 d2 :|
V:A
|: x | x3 AB2 | d3 d2z | czz cB2 | [de]3 [Ace]2A |
 c^G[FA] zDG | FA2 A2d | d3 c2x | [GA]3 [FA]2 :|
V:B octave=0 clef=G
|: D | A3 F^GE | A3 A3 | A3 F^GE | [CA]3 [CA]2D |
V:B octave=-2 clef=F
 a3 g2e | d2c d2G | F2E A2x | d3- [Dd]2 :|

